X: 32304
T: Pigeon On The Gate, The
R: reel
M: 4/4
K: Edorian
BE (3EEE E2ed|BE (3EEE EDCE|D3F (3AAA FE|DEFA BAFA|
BE (3EEE E2ed|BE (3EEE EDCE|DEFA defe|dBAF EFGA:|
e3d efed|Bdef gfed|Bddc d3B|ABAF DEFA|
Beed efed|Bdef g2fg|af ge fd ec|dBAF EFGA:|

